X:196
T:Head Over Heels in Love With You
C:John Moore
N: ("Crary & Hoppers and Their American Band") Transcribed by Steve Keating 
R:bluegrass
L:1/8
Q:1/4=240
M:4/4
K:A
z8 | z2 E2 EF A2 | "A"=c^c eB (3=cBA FE | AE zE FA z=c | ce fe (3=cBA FE | A=c ^ce fa fe | 
a2 =gf eg fe | "E"=c^c eB (3=cBA FE | "A"AE FA EF z2 | "A7"=G2 FG BG FE | "D"DE =C^C EC =CB, | 
A,=C D^D ED =DE | "A"=G^D ED =D^D ED | DE ^D=D =C^D =DC | A,B, CD EF A=c | "E"ce fe (3=cBA FE | 
"A"Aa fe f2 e=g | z2 =c^c e=c B2 | AE FA E2 [EB,][EC] | [EC][EC] [EC][EC] [E4C4] | 
z8 | z8 | z8 | z8 | " "z8 | 


